X:1
T:Guadalupe, 76.76.76 D
T:Guadalupe, 76.76.76 D
T:Howard T. Googins, 1899
T:Public Domain Courtesy of the Cyber Hymnal™
C:Howard T. Googins, 1899
Z:Public Domain
Z:Courtesy of the Cyber Hymnal™
%%score ( 1 2 ) ( 3 4 )
L:1/8
Q:1/4=105
M:6/8
K:Db
V:1 treble 
V:2 treble 
V:3 bass 
V:4 bass 
V:1
 [FA] | [Fd]2 [FA] (dc)[GB] | [FA]3 [DF]2 D | (FG)[DA] [CF]2 [CE] | D3- D2 [DF] | %5
 [CG]2 [CE] G2 [Gd] | [Gc]3 [GB]2 [CA] | (=GF)[DE] [DB]2 [Dc] | [CA]3- [CA]2 [GA] | %9
 [Fd]2 [FA] (dc)[GB] | [FA]3 [DF]2 D | E2 E [EF]2 [EF] | [EG]3- [EG]2 [=EB] | %13
 [FA]2 [FB] [Fc]2 [Fd] | [Ge]3 [GB]2 [Gd] | [Gc]2 [GA] [Ge]2 [Gc] | [Fd]3- [Fd]2 [Fd] | %17
 [Fd]2 [FA] (_cB)[FA] | [GB]3 [Gd]2 [Gd] | [=Ge]2 [GB] (dc)[GB] | [Gc]3- [Gc]2 [GA] | %21
 [Fd]2 [FA] (FE)[EF] | [EG]3 !fermata![=EB]2 [EB] | [FA]2 [Fd] [Ge]2 [Gc] | [Fd]3- [Fd]2 |] %25
V:2
 x | x3 F2 x | x5 D | D2 x4 | D3- D2 x | x3 (CE) x | x6 | D2 x4 | x6 | x3 F2 x | x5 D | E2 E x3 | %12
 x6 | x6 | x6 | x6 | x6 | x3 F2 x | x6 | x3 =G2 x | x6 | x3 E2 x | x6 | x6 | x5 |] %25
V:3
 [D,D] | [D,A,]2 [D,D] [D,D]2 [D,D] | [D,D]3 [D,A,]2 [D,F,] | [D,A,]2 [D,F,] [A,,A,]2 [A,,G,] | %4
 [D,F,]3- [D,F,]2 [D,A,] | [E,A,]2 [A,,A,] [A,,A,]2 [A,,A,] | [A,,A,]3 [A,,A,]2 [A,,A,] | %7
 (B,A,)[E,=G,] [E,G,]2 [E,G,] | [A,,E,A,]3- [A,,E,A,]2 [A,C] | [D,D]2 [D,D] [D,D]2 [D,D] | %10
 [D,D]3 [D,A,]2 [F,A,] | [G,B,]2 [G,B,] [F,=A,]2 [F,A,] | [E,B,]3- [E,B,]2 [=G,D] | %13
 [A,D]2 [A,D] [A,D]2 [A,D] | [A,C]3 [A,E]2 [A,E] | [A,E]2 [A,C] [A,,C]2 [A,,A,] | %16
 [D,A,]3- [D,A,]2 [D,_C] | [D,_C]2 [D,D] [D,D]2 [D,D] | [G,D]3 [G,B,]2 [G,B,] | %19
 [E,B,]2 [E,E] [E,E]2 [E,E] | [A,E]3- [A,E]2 [A,C] | [D,D]2 [D,D] [F,=A,]2 [F,A,] | %22
 [G,B,]3 !fermata![=G,D]2 [G,D] | [A,D]2 [A,D] [A,,C]2 [A,,A,] | [D,A,]3- [D,A,]2 |] %25
V:4
 x | x6 | x6 | x6 | x6 | x6 | x6 | E,2 x4 | x6 | x6 | x6 | x6 | x6 | x6 | x6 | x6 | x6 | x6 | x6 | %19
 x6 | x6 | x6 | x6 | x6 | x5 |] %25

